packages/icons/src/dashboard.svg

<svg width="15" height="15" viewBox="0 0 15 15" fill="none" xmlns="http://www.w3.org/2000/svg">
  <path
    fill-rule="evenodd"
    clip-rule="evenodd"
    d="M2.8 1L2.74967 0.99997C2.52122 0.999752 2.32429 0.999564 2.14983 1.04145C1.60136 1.17312 1.17312 1.60136 1.04145 2.14983C0.999564 2.32429 0.999752 2.52122 0.99997 2.74967L1 2.8V5.2L0.99997 5.25033C0.999752 5.47878 0.999564 5.67572 1.04145 5.85017C1.17312 6.39864 1.60136 6.82688 2.14983 6.95856C2.32429 7.00044 2.52122 7.00025 2.74967 7.00003L2.8 7H5.2L5.25033 7.00003C5.47878 7.00025 5.67572 7.00044 5.85017 6.95856C6.39864 6.82688 6.82688 6.39864 6.95856 5.85017C7.00044 5.67572 7.00025 5.47878 7.00003 5.25033L7 5.2V2.8L7.00003 2.74967C7.00025 2.52122 7.00044 2.32429 6.95856 2.14983C6.82688 1.60136 6.39864 1.17312 5.85017 1.04145C5.67572 0.999564 5.47878 0.999752 5.25033 0.99997L5.2 1H2.8ZM2.38328 2.01382C2.42632 2.00348 2.49222 2 2.8 2H5.2C5.50779 2 5.57369 2.00348 5.61672 2.01382C5.79955 2.05771 5.94229 2.20045 5.98619 2.38328C5.99652 2.42632 6 2.49222 6 2.8V5.2C6 5.50779 5.99652 5.57369 5.98619 5.61672C5.94229 5.79955 5.79955 5.94229 5.61672 5.98619C5.57369 5.99652 5.50779 6 5.2 6H2.8C2.49222 6 2.42632 5.99652 2.38328 5.98619C2.20045 5.94229 2.05771 5.79955 2.01382 5.61672C2.00348 5.57369 2 5.50779 2 5.2V2.8C2 2.49222 2.00348 2.42632 2.01382 2.38328C2.05771 2.20045 2.20045 2.05771 2.38328 2.01382ZM9.8 1L9.74967 0.99997C9.52122 0.999752 9.32429 0.999564 9.14983 1.04145C8.60136 1.17312 8.17312 1.60136 8.04145 2.14983C7.99956 2.32429 7.99975 2.52122 7.99997 2.74967L8 2.8V5.2L7.99997 5.25033C7.99975 5.47878 7.99956 5.67572 8.04145 5.85017C8.17312 6.39864 8.60136 6.82688 9.14983 6.95856C9.32429 7.00044 9.52122 7.00025 9.74967 7.00003L9.8 7H12.2L12.2503 7.00003C12.4788 7.00025 12.6757 7.00044 12.8502 6.95856C13.3986 6.82688 13.8269 6.39864 13.9586 5.85017C14.0004 5.67572 14.0003 5.47878 14 5.25033L14 5.2V2.8L14 2.74967C14.0003 2.52122 14.0004 2.32429 13.9586 2.14983C13.8269 1.60136 13.3986 1.17312 12.8502 1.04145C12.6757 0.999564 12.4788 0.999752 12.2503 0.99997L12.2 1H9.8ZM9.38328 2.01382C9.42632 2.00348 9.49222 2 9.8 2H12.2C12.5078 2 12.5737 2.00348 12.6167 2.01382C12.7995 2.05771 12.9423 2.20045 12.9862 2.38328C12.9965 2.42632 13 2.49222 13 2.8V5.2C13 5.50779 12.9965 5.57369 12.9862 5.61672C12.9423 5.79955 12.7995 5.94229 12.6167 5.98619C12.5737 5.99652 12.5078 6 12.2 6H9.8C9.49222 6 9.42632 5.99652 9.38328 5.98619C9.20045 5.94229 9.05771 5.79955 9.01382 5.61672C9.00348 5.57369 9 5.50779 9 5.2V2.8C9 2.49222 9.00348 2.42632 9.01382 2.38328C9.05771 2.20045 9.20045 2.05771 9.38328 2.01382ZM2.74967 7.99997L2.8 8H5.2L5.25033 7.99997C5.47878 7.99975 5.67572 7.99956 5.85017 8.04145C6.39864 8.17312 6.82688 8.60136 6.95856 9.14983C7.00044 9.32429 7.00025 9.52122 7.00003 9.74967L7 9.8V12.2L7.00003 12.2503C7.00025 12.4788 7.00044 12.6757 6.95856 12.8502C6.82688 13.3986 6.39864 13.8269 5.85017 13.9586C5.67572 14.0004 5.47878 14.0003 5.25033 14L5.2 14H2.8L2.74967 14C2.52122 14.0003 2.32429 14.0004 2.14983 13.9586C1.60136 13.8269 1.17312 13.3986 1.04145 12.8502C0.999564 12.6757 0.999752 12.4788 0.99997 12.2503L1 12.2V9.8L0.99997 9.74967C0.999752 9.52122 0.999564 9.32429 1.04145 9.14983C1.17312 8.60136 1.60136 8.17312 2.14983 8.04145C2.32429 7.99956 2.52122 7.99975 2.74967 7.99997ZM2.8 9C2.49222 9 2.42632 9.00348 2.38328 9.01382C2.20045 9.05771 2.05771 9.20045 2.01382 9.38328C2.00348 9.42632 2 9.49222 2 9.8V12.2C2 12.5078 2.00348 12.5737 2.01382 12.6167C2.05771 12.7995 2.20045 12.9423 2.38328 12.9862C2.42632 12.9965 2.49222 13 2.8 13H5.2C5.50779 13 5.57369 12.9965 5.61672 12.9862C5.79955 12.9423 5.94229 12.7995 5.98619 12.6167C5.99652 12.5737 6 12.5078 6 12.2V9.8C6 9.49222 5.99652 9.42632 5.98619 9.38328C5.94229 9.20045 5.79955 9.05771 5.61672 9.01382C5.57369 9.00348 5.50779 9 5.2 9H2.8ZM9.8 8L9.74967 7.99997C9.52122 7.99975 9.32429 7.99956 9.14983 8.04145C8.60136 8.17312 8.17312 8.60136 8.04145 9.14983C7.99956 9.32429 7.99975 9.52122 7.99997 9.74967L8 9.8V12.2L7.99997 12.2503C7.99975 12.4788 7.99956 12.6757 8.04145 12.8502C8.17312 13.3986 8.60136 13.8269 9.14983 13.9586C9.32429 14.0004 9.52122 14.0003 9.74967 14L9.8 14H12.2L12.2503 14C12.4788 14.0003 12.6757 14.0004 12.8502 13.9586C13.3986 13.8269 13.8269 13.3986 13.9586 12.8502C14.0004 12.6757 14.0003 12.4788 14 12.2503L14 12.2V9.8L14 9.74967C14.0003 9.52122 14.0004 9.32429 13.9586 9.14983C13.8269 8.60136 13.3986 8.17312 12.8502 8.04145C12.6757 7.99956 12.4788 7.99975 12.2503 7.99997L12.2 8H9.8ZM9.38328 9.01382C9.42632 9.00348 9.49222 9 9.8 9H12.2C12.5078 9 12.5737 9.00348 12.6167 9.01382C12.7995 9.05771 12.9423 9.20045 12.9862 9.38328C12.9965 9.42632 13 9.49222 13 9.8V12.2C13 12.5078 12.9965 12.5737 12.9862 12.6167C12.9423 12.7995 12.7995 12.9423 12.6167 12.9862C12.5737 12.9965 12.5078 13 12.2 13H9.8C9.49222 13 9.42632 12.9965 9.38328 12.9862C9.20045 12.9423 9.05771 12.7995 9.01382 12.6167C9.00348 12.5737 9 12.5078 9 12.2V9.8C9 9.49222 9.00348 9.42632 9.01382 9.38328C9.05771 9.20045 9.20045 9.05771 9.38328 9.01382Z"
    fill="currentColor"
  />
</svg>

<svg xmlns="http://www.w3.org/2000/svg" width="15" height="15" fill="none"><path fill="currentColor" fill-rule="evenodd" d="M2.8 1h-.05c-.229 0-.426 0-.6.041A1.5 1.5 0 0 0 1.04 2.15c-.04.174-.04.37-.04.6v2.5c0 .229 0 .426.041.6A1.5 1.5 0 0 0 2.15 6.96c.174.04.37.04.6.04h2.5c.229 0 .426 0 .6-.041A1.5 1.5 0 0 0 6.96 5.85c.04-.174.04-.37.04-.6v-2.5c0-.229 0-.426-.041-.6A1.5 1.5 0 0 0 5.85 1.04C5.676 1 5.48 1 5.25 1zm-.417 1.014c.043-.01.11-.014.417-.014h2.4c.308 0 .374.003.417.014a.5.5 0 0 1 .37.37c.01.042.013.108.013.416v2.4c0 .308-.003.374-.014.417a.5.5 0 0 1-.37.37C5.575 5.996 5.509 6 5.2 6H2.8c-.308 0-.374-.003-.417-.014a.5.5 0 0 1-.37-.37C2.004 5.575 2 5.509 2 5.2V2.8c0-.308.003-.374.014-.417a.5.5 0 0 1 .37-.37M9.8 1h-.05c-.229 0-.426 0-.6.041A1.5 1.5 0 0 0 8.04 2.15c-.04.174-.04.37-.04.6v2.5c0 .229 0 .426.041.6A1.5 1.5 0 0 0 9.15 6.96c.174.04.37.04.6.04h2.5c.229 0 .426 0 .6-.041a1.5 1.5 0 0 0 1.11-1.109c.04-.174.04-.37.04-.6v-2.5c0-.229 0-.426-.041-.6a1.5 1.5 0 0 0-1.109-1.11c-.174-.04-.37-.04-.6-.04zm-.417 1.014c.043-.01.11-.014.417-.014h2.4c.308 0 .374.003.417.014a.5.5 0 0 1 .37.37c.01.042.013.108.013.416v2.4c0 .308-.004.374-.014.417a.5.5 0 0 1-.37.37c-.042.01-.108.013-.416.013H9.8c-.308 0-.374-.003-.417-.014a.5.5 0 0 1-.37-.37C9.004 5.575 9 5.509 9 5.2V2.8c0-.308.003-.374.014-.417a.5.5 0 0 1 .37-.37M2.75 8h2.5c.229 0 .426 0 .6.041A1.5 1.5 0 0 1 6.96 9.15c.04.174.04.37.04.6v2.5c0 .229 0 .426-.041.6a1.5 1.5 0 0 1-1.109 1.11c-.174.04-.37.04-.6.04h-2.5c-.229 0-.426 0-.6-.041a1.5 1.5 0 0 1-1.11-1.109c-.04-.174-.04-.37-.04-.6v-2.5c0-.229 0-.426.041-.6A1.5 1.5 0 0 1 2.15 8.04c.174-.04.37-.04.6-.04m.05 1c-.308 0-.374.003-.417.014a.5.5 0 0 0-.37.37C2.004 9.425 2 9.491 2 9.8v2.4c0 .308.003.374.014.417a.5.5 0 0 0 .37.37c.042.01.108.013.416.013h2.4c.308 0 .374-.004.417-.014a.5.5 0 0 0 .37-.37c.01-.042.013-.108.013-.416V9.8c0-.308-.003-.374-.014-.417a.5.5 0 0 0-.37-.37C5.575 9.004 5.509 9 5.2 9zm7-1h-.05c-.229 0-.426 0-.6.041A1.5 1.5 0 0 0 8.04 9.15c-.04.174-.04.37-.04.6v2.5c0 .229 0 .426.041.6a1.5 1.5 0 0 0 1.109 1.11c.174.041.371.041.6.041h2.5c.229 0 .426 0 .6-.041a1.5 1.5 0 0 0 1.109-1.109c.041-.174.041-.371.041-.6v-2.5c0-.229 0-.426-.041-.6A1.5 1.5 0 0 0 12.85 8.04c-.174-.04-.37-.04-.6-.04zm-.417 1.014c.043-.01.11-.014.417-.014h2.4c.308 0 .374.003.417.014a.5.5 0 0 1 .37.37c.01.042.013.108.013.416v2.4c0 .308-.004.374-.014.417a.5.5 0 0 1-.37.37c-.042.01-.108.013-.416.013H9.8c-.308 0-.374-.004-.417-.014a.5.5 0 0 1-.37-.37C9.004 12.575 9 12.509 9 12.2V9.8c0-.308.003-.374.014-.417a.5.5 0 0 1 .37-.37" clip-rule="evenodd"/></svg>
